X: 41803
T: Victor's
R: jig
M: 6/8
K: Amajor
|:FAc AFE|B,CE ECE|FAc AFE|dcB BAG|
FAc AFE|B,CE ECE|FB,C EFF|1 EFA BAG:|2 EFA BAB||
|:cef afe|cee ecB|cef gaa|bag gfe|
cef afe|Bce ece|agf fag|1 gfe ecB:|2 gfe cBA||

